icons/Color/24/gimp-tool-text.svg

<svg height="24" viewBox="0 0 24 24" width="24" xmlns="http://www.w3.org/2000/svg" xmlns:xlink="http://www.w3.org/1999/xlink"><linearGradient id="a" gradientTransform="matrix(.498259 0 0 .4886 -.799974 -1.273557)" gradientUnits="userSpaceOnUse" x1="23.30562" x2="14.38852" y1="24.843531" y2="9.590224"><stop offset="0" stop-color="#1f1f1f"/><stop offset="1" stop-color="#5c5c5c"/></linearGradient><linearGradient id="b" gradientTransform="matrix(.498259 0 0 .466519 -.799974 -.839637)" gradientUnits="userSpaceOnUse" x1="19.94445" x2="24.133829" y1="16.52726" y2="19.64213"><stop offset="0" stop-color="#fff"/><stop offset="1" stop-color="#b3b3b3" stop-opacity="0"/></linearGradient><g transform="matrix(1.4999907 0 0 1.5000006 .000148 .0001)"><g transform="matrix(.72564464879 0 0 .76587290138 -.01375706423 .67380078998)"><path d="m15.18936 15.52077h-8.036215l-1.29334 3.99306h-5.3435322l7.5846652-19.0254512h6.127282l7.3323 18.9764012h-5.11633zm-6.790282-3.04679h5.459822l-2.815329-7.2605856z" fill="url(#a)" stroke="#000" stroke-linecap="round" stroke-linejoin="round" stroke-width=".994957"/><g fill="none"><path d="m15.68454 15.15955h-9.013464l-1.254403 3.36775h-3.413132l6.734925-17.065105h4.774014l6.51008 16.948265h-3.12286z" opacity=".379121" stroke="url(#b)" stroke-linejoin="round" stroke-width=".994958"/><path d="m8.168684 13.55188h5.979106" opacity=".510989" stroke="#999" stroke-linecap="round" stroke-width=".994957"/></g></g><path d="m.085007.08494h15.829987v.496653h-15.829987z" opacity="0" stroke="#900" stroke-linecap="round" stroke-width=".170013"/></g></svg>

<?xml version="1.0" encoding="UTF-8" standalone="no"?>
<!-- Created with Inkscape (http://www.inkscape.org/) -->

<svg
   xmlns:dc="http://purl.org/dc/elements/1.1/"
   xmlns:cc="http://creativecommons.org/ns#"
   xmlns:rdf="http://www.w3.org/1999/02/22-rdf-syntax-ns#"
   xmlns:svg="http://www.w3.org/2000/svg"
   xmlns="http://www.w3.org/2000/svg"
   xmlns:xlink="http://www.w3.org/1999/xlink"
   xmlns:sodipodi="http://sodipodi.sourceforge.net/DTD/sodipodi-0.dtd"
   xmlns:inkscape="http://www.inkscape.org/namespaces/inkscape"
   width="24"
   height="24"
   viewBox="0 0 24 24"
   id="svg30571"
   version="1.1"
   inkscape:version="0.91+devel r"
   sodipodi:docname="gimp-tool-text-24.svg"
   inkscape:export-filename="/home/klaus/Bilder/icons/Symbolic/hicolor/24x24/apps/gimp-channel.png"
   inkscape:export-xdpi="98.181816"
   inkscape:export-ydpi="98.181816">
  <defs
     id="defs30573">
    <linearGradient
       inkscape:collect="always"
       xlink:href="#linearGradient3682"
       id="linearGradient6334"
       gradientUnits="userSpaceOnUse"
       gradientTransform="matrix(0.498259,0,0,0.4886,-0.799974,-1.273557)"
       x1="23.30562"
       y1="24.843531"
       x2="14.38852"
       y2="9.5902243" />
    <linearGradient
       id="linearGradient3682">
      <stop
         id="stop3684"
         offset="0.0000000"
         style="stop-color:#1f1f1f;stop-opacity:1.0000000;" />
      <stop
         id="stop3686"
         offset="1.0000000"
         style="stop-color:#5c5c5c;stop-opacity:1.0000000;" />
    </linearGradient>
    <linearGradient
       inkscape:collect="always"
       xlink:href="#linearGradient2834"
       id="linearGradient6336"
       gradientUnits="userSpaceOnUse"
       gradientTransform="matrix(0.498259,0,0,0.466519,-0.799974,-0.839637)"
       x1="19.94445"
       y1="16.52726"
       x2="24.133829"
       y2="19.64213" />
    <linearGradient
       id="linearGradient2834">
      <stop
         id="stop2836"
         offset="0"
         style="stop-color:#ffffff;stop-opacity:1;" />
      <stop
         id="stop2838"
         offset="1.0000000"
         style="stop-color:#b3b3b3;stop-opacity:0.0000000;" />
    </linearGradient>
  </defs>
  <sodipodi:namedview
     id="base"
     pagecolor="#ffffff"
     bordercolor="#666666"
     borderopacity="1.0"
     inkscape:pageopacity="0.0"
     inkscape:pageshadow="2"
     inkscape:zoom="16"
     inkscape:cx="-5.416016"
     inkscape:cy="14.628924"
     inkscape:document-units="px"
     inkscape:current-layer="layer1"
     showgrid="true"
     units="px"
     inkscape:snap-page="true"
     inkscape:snap-bbox="true"
     inkscape:bbox-paths="true"
     inkscape:bbox-nodes="true"
     inkscape:snap-bbox-edge-midpoints="true"
     inkscape:snap-bbox-midpoints="true"
     inkscape:object-paths="true"
     inkscape:snap-intersection-paths="true"
     inkscape:object-nodes="true"
     inkscape:snap-smooth-nodes="true"
     inkscape:snap-midpoints="true"
     inkscape:snap-object-midpoints="true"
     inkscape:snap-center="true"
     inkscape:snap-text-baseline="true"
     showborder="false"
     inkscape:window-width="1920"
     inkscape:window-height="1016"
     inkscape:window-x="0"
     inkscape:window-y="27"
     inkscape:window-maximized="1"
     inkscape:snap-global="false">
    <inkscape:grid
       type="xygrid"
       id="grid4369" />
  </sodipodi:namedview>
  <metadata
     id="metadata30576">
    <rdf:RDF>
      <cc:Work
         rdf:about="">
        <dc:format>image/svg+xml</dc:format>
        <dc:type
           rdf:resource="http://purl.org/dc/dcmitype/StillImage" />
        <dc:title></dc:title>
        <dc:creator>
          <cc:Agent>
            <dc:title>Klaus Staedtler</dc:title>
          </cc:Agent>
        </dc:creator>
      </cc:Work>
    </rdf:RDF>
  </metadata>
  <g
     inkscape:label="Layer 1"
     inkscape:groupmode="layer"
     id="layer1"
     transform="translate(0,-1028.3622)">
    <g
       id="g4595">
      <g
         transform="matrix(1.4999907,0,0,1.5000006,1.4792788e-4,1028.3623)"
         id="g4033">
        <g
           id="g4042"
           transform="matrix(0.9995373,0,0,1.0549496,0.15007258,0.01477286)">
          <g
             transform="matrix(0.72598056,0,0,0.72598056,18.755525,-167.08523)"
             id="draw_text"
             style="display:inline">
            <g
               inkscape:label="Layer 1"
               id="g6314"
               transform="translate(-26.06052,231.0116)">
              <path
                 inkscape:connector-curvature="0"
                 sodipodi:nodetypes="ccccccccccccc"
                 id="text1314"
                 d="M 15.18936,15.52077 H 7.153145 l -1.29334,3.99306 H 0.5162728 L 8.100938,0.4883788 H 14.22822 L 21.56052,19.46478 H 16.44419 L 15.18936,15.52077 M 8.399078,12.47398 H 13.8589 L 11.043571,5.2133944 8.399078,12.47398"
                 style="font-style:normal;font-variant:normal;font-weight:bold;font-stretch:normal;font-size:54.8693924px;line-height:125%;font-family:'Bitstream Vera Sans';text-align:start;writing-mode:lr-tb;text-anchor:start;fill:url(#linearGradient6334);fill-opacity:1;stroke:#000000;stroke-width:0.99495679;stroke-linecap:round;stroke-linejoin:round;stroke-miterlimit:4;stroke-dasharray:none;stroke-opacity:1" />
              <path
                 inkscape:connector-curvature="0"
                 sodipodi:nodetypes="ccccccccc"
                 id="path2047"
                 d="M 15.68454,15.15955 H 6.671076 L 5.416673,18.5273 H 2.003541 L 8.738466,1.462195 H 13.51248 L 20.02256,18.41046 H 16.8997 Z"
                 style="font-style:normal;font-variant:normal;font-weight:bold;font-stretch:normal;font-size:54.8693924px;line-height:125%;font-family:'Bitstream Vera Sans';text-align:start;writing-mode:lr-tb;text-anchor:start;opacity:0.37912083;fill:none;fill-opacity:1;stroke:url(#linearGradient6336);stroke-width:0.99495751;stroke-linecap:butt;stroke-linejoin:round;stroke-miterlimit:4;stroke-dasharray:none;stroke-opacity:1" />
              <path
                 inkscape:connector-curvature="0"
                 sodipodi:nodetypes="cc"
                 id="path5142"
                 d="M 8.168684,13.55188 H 14.14779"
                 style="opacity:0.51098902;fill:none;fill-opacity:0.75;fill-rule:evenodd;stroke:#999999;stroke-width:0.99495739;stroke-linecap:round;stroke-linejoin:miter;stroke-miterlimit:4;stroke-dasharray:none;stroke-opacity:1" />
            </g>
          </g>
        </g>
        <rect
           style="opacity:0;fill:#000000;fill-opacity:1;stroke:#990000;stroke-width:0.17001313;stroke-linecap:round;stroke-linejoin:miter;stroke-miterlimit:4;stroke-dasharray:none;stroke-opacity:1;paint-order:stroke fill markers"
           id="rect4024"
           width="15.829987"
           height="0.49665326"
           x="0.085006565"
           y="0.084939912" />
      </g>
    </g>
  </g>
</svg>
